X:1
T:Exultet orbis
T:Exultet orbis
T:André Vierendeels ( 16/09/10)
C:André Vierendeels
C:( 16/09/10)
%%score [ 1 2 3 4 ]
L:1/8
Q:1/4=120
M:3/2
K:C
V:1 treble nm="Soprano" snm="S"
V:2 treble nm="Alto" snm="A"
V:3 treble-8 nm="Tenor" snm="T"
V:4 bass nm="Bass" snm="B"
V:1
 z8 c4 | c8 c4 | (c4 e4) d4 | c4- B4 A4 | !fermata!G8 B4 | c8 B4 | A8 G4 | A8 c4 | !fermata!G8 G4 | %9
w: Ex-|ul- tet|or- * bis|gran- * di-|is fes-|tis in|his pa-|scha- li-|bus: vic-|
 E4- F4 G4 | A8 G4 | E8 D4 | !fermata!C8 D4 | E8 D4 | E8 A4 | A4- G4 F4 | !fermata!E8 D4 | C8 D4 | %18
w: tor _ re-|di- vit|in- fe-|ris De-|us to-|nans in|nu- * ni-|bus, De-|us to-|
 E8 A4 | A4 G4 F4 | !fermata!E12 |] %21
w: nans in|nu- * ni-|bus.|
V:2
 z8 G4 | F8 A4 | E4 G8 | G8 ^F4 | !fermata!D8 E4 | G8 E4 | E8 E4 | C4- D4 F4 | !fermata!D8 E4 | %9
w: Ex-|ul- tet|or- bis|gran- di-|is fes-|tis in|his pa-|scha- * li-|bus vic-|
 C8 C4 | F4 D8 | C4 B,8 | !fermata!C8 A,4 | C4- E4 F4 | C8 F4 | F4 D8 | !fermata!^C8 A,4 | C8 F4 | %18
w: tor re-|di- vit|in- fe-|ris De-|us _ to-|nans in|nu- ni-|bus, De-|us to-|
 C8 E4 | F4 D8 | !fermata!^C12 |] %21
w: nans in|nu- ni-|bus.|
V:3
 z8 E4 | A8 c4 | (G4 c4) B4 | c4 d8 | !fermata!B8 G4 | c8 G4 | c8 c4 | A8 A4 | !fermata!B8 B4 | %9
w: Ex-|ul- tet|or- * bis|gran- di-|is fes-|tis in|his pa-|scha- li-|bus vic-|
 A8 G4 | c4- d4 G4 | G4 G8 | !fermata!A8 F4 | A4- G4 _B4 | G8 d4 | c4- _B4 A4 | !fermata!A8 F4 | %17
w: tor re-|di- * vit|in- fe-|ris De-|us _ to-|nans in|nu- * ni-|bus, De-|
 G8 _B4 | (G4 C4) c4 | c4 _B4 A4 | !fermata!A12 |] %21
w: us to-|nans _ in|nu- * ni-|bus.|
V:4
 z8 C,4 | F,8 F,4 | E,4- C,4 G,4 | E,4- G,4 D,4 | !fermata!G,8 E,4 | E,8 E,4 | A,,8 C,4 | %7
w: Ex-|ul- tet|or- * bis|gran- * di-|is fes-|tis in|his pa-|
 F,4- D,4 F,4 | !fermata!G,8 E,4 | (A,,4 F,4) E,4 | F,4- D,4 B,,4 | E,4 E,8 | !fermata!F,8 D,4 | %13
w: scha- * li-|bus vic-|tor _ re-|di _ vit|in- fer-|nis De-|
 A,,4- C,4 _B,,4 | C,4- E,4 D,4 | F,4- G,4 D,4 | !fermata!A,,8 D,4 | C,8 _B,,4 | (C,4 G,4) A,4 | %19
w: us _ to-|nans _ in|nu- * ni-|bus, De-|us to-|nans _ in|
 F,4 G,4 D,4 | !fermata!A,,12 |] %21
w: nu- * ni-|bus.|

